X: 1686
T: Antara
R: reel
M: 4/4
K: Gmajor
|:F|D2GA B3d|GGdB cAAF|DGBd eccd|BGAF DGGF|
DGGA B3d|dGBd cAAF|DGBd eccA|BGAF DGG|
DGGA B3d|G2 dB cAAF|DGBd e3c|BGAF DGGF|
DGGA BGdB|GdBG cAAF|DGBd eccA|BGAF DGGF||
|:A|BGdB c3B|ADFA dBcA|BGBd e3c|BGAF DGGA|
BGdB cABG|ADFA dBcA|BGBd eccA|BGAF DG G2:|

